X: 2717
T: Banks Of Lough Gowna, The
R: jig
M: 6/8
K: Bminor
|:B3 BAF|FEF DFA|B3 BAF|Ade fed|
B3 BAF|FEF DFA|def gfe|1 fdB Bdc:|2 fed BAB||
|:def a2b|afb afe|dFA def|gfe fdB|
def a2b|afb afe|def gfe|1 fed BAB:|2 fdB Bdc||

